X:1
T:Title
%%score { ( 1 4 ) | ( 2 3 ) }
L:1/8
M:3/4
K:Eb
V:1 treble nm="Grand Piano"
V:4 treble 
V:2 treble 
V:3 treble 
V:1
 z2 z[Q:1/4=92] B B>c | [GB]3 G G>F | E3 B B>c | [GB]3 G AG | [DF]3 B [AB]>c | [GB]3 G AB | %6
 [Ac]3 c ec | [GB]3 G [DF]G |[M:13/16] z A,C/B,G[FA][=B,FG] |[M:3/4] [Ec]3 c =Bc | %10
 [=Bd]3 [Gd] [Ge][Ac] | [GB]3 c BG | [DF]3 B B>c | [GB]3 [EG] [FA][GB] | [Ac]3 c ec | %15
 [GB]3 G [DF]>G | E6 |[M:4/4] [EG] .[GB]3 [GB]3 [EG] | G2 G2 z4 | [FA] .[Ac]3 [Ac]3 [FA] | %20
 [Ac]4 z2 [FABd]2 | [Ge]3 [Ac] [GB]2 [_Gc]2 | [GB]2 [EG]2 [GB]4 | %23
[M:39/32] [Ac]/-<[Ac]/[Ac]/4-[Ac]/4-[Ac]/4-[Ac]/4-[Ac]/-<[Ac]/ z/4 z/4 z/ B/4-B/4-B/4-B/4-B/4-B/4-B/4-B/4-B/4-B/4-B/4-B/4-B/4-B/4-B/4-B/4-B/-<B/[EGBe]3/4 | %24
[M:9/16] [EGBe]3- [EGBe]/4 z/4 z/ z/ |] %25
V:2
 z2 z G G>A | E,,B,, E,E D>D | E,,B,, E,[K:treble]G G>A | E,,B,, E,[K:treble]E FE | %4
 B,,F, B,[K:treble]D/F/[K:bass] z z/ A/ | E,,B,, E,[K:treble]E FG | A,,E, A,[K:treble]A cA | %7
 B,,E, B,E z D |[M:13/16] .G,3/2 z/ [E,G,]3/2E,D,D, |[M:3/4] C,G,[K:treble] CG GG | %10
 G,3[K:bass] =B,, C,D, | z2 z[K:treble] _G =GE | B,,F, B,[K:treble]D/F/ A>A | E,,B,, E,_D, C,B,, | %14
 z2 z[K:treble] A cA | z2 z E z z/ D/ | [E,G,]G, E,4 | %17
[M:4/4] [E,,B,,E,] .[E,,B,,E,]3 [E,,B,,E,]3 [E,,B,,E,] | [E,,E,]4 z4 | %19
 [A,,A,] .[A,,A,]3 [A,,A,]3 [A,,A,] | [A,,A,]4 z2 [B,,B,]2 | [E,,E,]3 [E,,E,] [E,,E,]2 [E,,E,]2 | %22
 [E,,E,]2 [E,,E,]2 [E,,E,]4 | %23
[M:39/32] z/4 z/4 z/4 z/4 z/4 z/4 z/4 z/4 z/4 z/4 z/4 z/4 z/4 z/4 z/ [B,,B,]/4-[B,,B,]/4-[B,,B,]/4-[B,,B,]/4-[B,,B,]/4-[B,,B,]/4-[B,,B,]/4-[B,,B,]/4-[B,,B,]/4-[B,,B,]/4-[B,,B,]/4-[B,,B,]/4-[B,,B,]/4-[B,,B,]/4-[B,,B,]/4-[B,,B,]/4-[B,,B,]/4-[B,,B,]/4-[B,,B,]/-<[B,,B,]/ z/4 | %24
[M:9/16] [E,,B,,]3- [E,,B,,]/4 z/4 z/ z/ |] %25
V:3
 x6 | x6 | x3[K:treble] x3 | x3[K:treble] x3 | z2 z2[K:treble][K:bass] D,2 | x3[K:treble] x3 | %6
 x3[K:treble] x3 | z2 z2 [B,,A,]2 |[M:13/16] E,-<E, z/ z/ z/ z/ z/ z/ z/ z | %9
[M:3/4] x2[K:treble] x4 | x3[K:bass] x3 | E,6[K:treble] | x3[K:treble] x3 | x6 | %14
 A,,4[K:treble] z2 | B,,4 [B,,B,]2 | x6 |[M:4/4] x8 | x8 | x8 | x8 | x8 | x8 | %23
[M:39/32] [A,,A,]/-<[A,,A,]/[A,,A,]/4-[A,,A,]/4-[A,,A,]/4-[A,,A,]/4-[A,,A,]/-<[A,,A,]/ z/4 z/4 z/4 z/4 z/4 z/4 z/4 z/4 z/4 z/4 z/4 z/4 z/4 z/4 z/4 z/4 z/4 z/4 z/4 z/4 z/4 z/4 z/ [E,,E,]3/4 | %24
[M:9/16] x9/2 |] %25
V:4
 x6 | x6 | x6 | x6 | x6 | x6 | x6 | x6 |[M:13/16] E/-E/-E/-E-<E z/ z/ z/ z/ z |[M:3/4] x6 | x6 | %11
 x6 | x6 | x6 | x6 | x6 | z B, G,4 |[M:4/4] x8 | B-[EB-]B-[B,B] EB,EG | x8 | x8 | x8 | x8 | %23
[M:39/32] z/4 z/4 z/4 z/4 z/4 z/4 z/4 z/4 z/4 z/4 z/4 z/4 z/4 z/4 z/ [FAd]/4-[FAd]/4-[FAd]/4-[FAd]/4-[FAd]/4-[FAd]/4-[FAd]/4-[FAd]/4-[FAd]/4-[FAd]/4-[FAd]/4-[FAd]/4-[FAd]/4-[FAd]/4-[FAd]/4-[FAd]/4-[FAd]/4-[FAd]/4-[FAd]/-<[FAd]/ z/4 | %24
[M:9/16] x9/2 |] %25

